X:285
T:West Fencibles Quick Step. RH.285
R:march
S:Rev.R.Harrison’s MS,c1815,Cumbria
O:England
A:Temple Sowerby,Cumbria
Z:vmp.Simon Wilson. Review PJH, 2008.
M:2/4
L:1/8
Q:1/4=120
K:D
d/f/a/f/ dA|Bg g2|fe dc|e/d/c/B/ A2|\
d/f/a/f/ dA|Bg g2|fe dc|d2 d2:|!
|:Ad d=c|=cB B2|Be ed|cA A2|\
ec Ae|fd Bf|e>f e/d/c/B/|A2 A2:|

